icons/GoogleTranslateColor.svg

<svg width="16" height="16" viewBox="0 0 16 16" fill="none" xmlns="http://www.w3.org/2000/svg">
<g clip-path="url(#clip0_2180_4616)">
<path d="M14.9327 16C15.5177 16 15.9969 15.5288 15.9969 14.9518V4.26003C15.9969 3.68305 15.5177 3.21185 14.9327 3.21185H4.54541L8.7141 16H14.9327Z" fill="#DBDBDB"/>
<path d="M14.9327 3.69267C15.0881 3.69267 15.2356 3.75357 15.3462 3.86256C15.4552 3.96994 15.5161 4.11098 15.5161 4.26003V14.9518C15.5161 15.1009 15.4568 15.2419 15.3462 15.3493C15.2356 15.4583 15.0881 15.5192 14.9327 15.5192H9.06349L5.20734 3.69267H14.9327ZM14.9327 3.21185H4.54541L8.7141 16H14.9327C15.5177 16 15.9969 15.5288 15.9969 14.9518V4.26003C15.9969 3.68305 15.5177 3.21185 14.9327 3.21185Z" fill="#DCDCDC"/>
<path d="M7.72998 12.9789L8.71405 16L11.4499 12.9789H7.72998Z" fill="#4352B8"/>
<path d="M15.0031 7.63055V7.00389H11.9819V5.99097H11.0011V7.00389H9.073V7.63055H12.9099C12.7048 8.35338 12.2512 9.03614 11.8088 9.56665C11.0251 8.63867 11.0219 8.33736 11.0219 8.33736H10.2077C10.2077 8.33736 10.2414 8.78932 11.3409 10.0779C10.9834 10.4433 10.7126 10.6597 10.7126 10.6597L10.9626 11.4418C10.9626 11.4418 11.3409 11.1165 11.8137 10.6148C12.2881 11.1293 12.9003 11.748 13.6921 12.4852L14.2065 11.9707C13.3587 11.2014 12.7368 10.5908 12.2801 10.1004C12.8923 9.37592 13.5141 8.46397 13.6456 7.62895H15.0015V7.63055H15.0031Z" fill="#607988"/>
<path d="M1.06421 0C0.479215 0 0 0.479215 0 1.06581V11.9163C0 12.5013 0.479215 12.9805 1.06421 12.9805H11.4515L7.28278 0H1.06421Z" fill="#4285F4"/>
<path d="M8.56348 3.21185H14.9327C15.5177 3.21185 15.9969 3.68305 15.9969 4.26003V10.6741L8.56348 3.21185Z" fill="url(#paint0_linear_2180_4616)"/>
<path d="M5.95252 6.90131C5.91245 7.38694 5.49735 8.10656 4.49244 8.10656C3.62216 8.10656 2.91696 7.38694 2.91696 6.50063C2.91696 5.61433 3.62216 4.8947 4.49244 4.8947C4.98768 4.8947 5.31784 5.10947 5.50696 5.28416L6.16729 4.64949C5.73295 4.2488 5.16719 3.99878 4.49244 3.99878C3.11249 3.99878 1.99219 5.11908 1.99219 6.49903C1.99219 7.87898 3.11249 8.99928 4.49244 8.99928C5.9381 8.99928 6.89332 7.98476 6.89332 6.55352C6.89332 6.34837 6.86768 6.19772 6.83402 6.04386H4.49404V6.89971L5.95252 6.90131Z" fill="#EEEEEE"/>
<path d="M14.9326 3.21186H8.31494L7.28278 0H1.06421C0.479215 0 0 0.479215 0 1.06581V11.9163C0 12.5013 0.479215 12.9805 1.06421 12.9805H7.72994L8.71402 16H14.9326C15.5176 16 15.9968 15.5288 15.9968 14.9518V4.26004C15.9968 3.68306 15.5176 3.21186 14.9326 3.21186Z" fill="url(#paint1_radial_2180_4616)"/>
</g>
<defs>
<linearGradient id="paint0_linear_2180_4616" x1="8.56348" y1="6.943" x2="15.9969" y2="6.943" gradientUnits="userSpaceOnUse">
<stop stop-color="white" stop-opacity="0.2"/>
<stop offset="1" stop-color="white" stop-opacity="0.02"/>
</linearGradient>
<radialGradient id="paint1_radial_2180_4616" cx="0" cy="0" r="1" gradientUnits="userSpaceOnUse" gradientTransform="translate(1.0451 0.310384) scale(22.4104 22.4104)">
<stop stop-color="white" stop-opacity="0.1"/>
<stop offset="1" stop-color="white" stop-opacity="0"/>
</radialGradient>
<clipPath id="clip0_2180_4616">
<rect width="16" height="16" fill="white"/>
</clipPath>
</defs>
</svg>

<svg width="16" height="16" fill="none" xmlns="http://www.w3.org/2000/svg"><g clip-path="url(#a)"><path d="M14.933 16a1.06 1.06 0 0 0 1.064-1.048V4.26a1.06 1.06 0 0 0-1.064-1.048H4.545L8.715 16h6.218z" fill="#DBDBDB"/><path d="M14.933 3.693c.155 0 .303.06.413.17.11.107.17.248.17.397v10.692c0 .149-.06.29-.17.397a.587.587 0 0 1-.413.17h-5.87L5.207 3.693h9.726zm0-.481H4.545L8.715 16h6.218a1.06 1.06 0 0 0 1.064-1.048V4.26a1.06 1.06 0 0 0-1.064-1.048z" fill="#DCDCDC"/><path d="M7.73 12.979 8.714 16l2.736-3.021H7.73z" fill="#4352B8"/><path d="M15.003 7.63v-.626h-3.021V5.99h-.98v1.013H9.072v.627h3.837c-.205.722-.659 1.405-1.101 1.936-.784-.928-.787-1.23-.787-1.23h-.814s.033.452 1.133 1.74c-.358.366-.628.583-.628.583l.25.782s.378-.325.85-.827a35.008 35.008 0 0 0 1.88 1.87l.514-.514c-.848-.77-1.47-1.38-1.927-1.87.612-.725 1.234-1.637 1.366-2.472H15v.002h.002z" fill="#607988"/><path d="M1.064 0C.48 0 0 .48 0 1.066v10.85c0 .585.48 1.064 1.064 1.064h10.387L7.283 0H1.064z" fill="#4285F4"/><path d="M8.563 3.212h6.37a1.06 1.06 0 0 1 1.064 1.048v6.414L8.563 3.212z" fill="url(#b)"/><path d="M5.953 6.901c-.04.486-.456 1.206-1.46 1.206-.87 0-1.576-.72-1.576-1.606 0-.887.705-1.606 1.575-1.606.496 0 .826.214 1.015.39l.66-.636c-.434-.4-1-.65-1.675-.65a2.501 2.501 0 0 0 0 5c1.446 0 2.401-1.014 2.401-2.445 0-.206-.025-.356-.059-.51h-2.34V6.9l1.459.001z" fill="#EEE"/><path d="M14.933 3.212H8.315L7.283 0H1.064C.48 0 0 .48 0 1.066v10.85c0 .585.48 1.064 1.064 1.064H7.73L8.714 16h6.219a1.06 1.06 0 0 0 1.064-1.048V4.26a1.06 1.06 0 0 0-1.064-1.048z" fill="url(#c)"/></g><defs><radialGradient id="c" cx="0" cy="0" r="1" gradientUnits="userSpaceOnUse" gradientTransform="translate(1.045 .31) scale(22.4104)"><stop stop-color="#fff" stop-opacity=".1"/><stop offset="1" stop-color="#fff" stop-opacity="0"/></radialGradient><linearGradient id="b" x1="8.563" y1="6.943" x2="15.997" y2="6.943" gradientUnits="userSpaceOnUse"><stop stop-color="#fff" stop-opacity=".2"/><stop offset="1" stop-color="#fff" stop-opacity=".02"/></linearGradient><clipPath id="a"><path fill="#fff" d="M0 0h16v16H0z"/></clipPath></defs></svg>
